X:1
T:Title
T:Beauty and the Beast
T:Alan Menken Arr. Kalista Nguyen 
C:Composer
L:1/8
M:4/4
K:C
V:1 treble nm="Piano" snm="Pno."
V:1
 z4 efde | c4 G4 | z4 efde | c4 g4 | z4 EGBc | F4 z4 | z4 EGBc | d4 z4 | z4 cdef | g2 z2 gfed | %10
 c2 z2 fedc | G8 | z4 EGBc | F4 z4 | z4 EGBc | d4 efde | c4 z4 | z4 edeg | c4 cBce | A4 efde | %20
 c8 |] %21

